X:1
T:Puis que vous ayme
T:Puis que vous ayme
T:Thomas Crecquillon
C:Thomas Crecquillon
%%score [ 1 2 [ 3 4 ] ]
L:1/8
Q:1/4=80
M:2/2
K:C
V:1 treble nm="Superius" snm="S"
V:2 treble nm="Altus" snm="A"
V:3 treble-8 nm="Tenor 1" snm="T 1"
V:4 treble-8 nm="Tenor 2" snm="T 2"
V:1
 A8 | A6 A2 | c4 d4- | d2 cB c4 | z2 c2 c3 d | e2 f3 e d2 | c2 d4 c2 | d2 d2 d2 d2 | A2 A2 c3 B | %9
w: Puis-|que vous|ay- *|* * * me,|il fault que|je vous _ _|di- * *|se, que bien ay-|mer s'ap- pel- le|
 A2 G2 A2 B2- | BA A4 G2 | A2 e2 f4 | e2 d4 c2 | B2 A4 G2 | A2 c2 d2 f2- | fe dc d4 | c4 z2 A2 | %17
w: ma- la- di- *||e, [s'ap- pel-|le ma- la|di- * *|e,] je suis mal|_ _ _ _ _|sain, et|
 B2 c2 d2 d2 | c2 e2 d2 c2- | c2 B2 c2 A2 | B2 c2 d4 | c8 |: z4 z2 A2 | c4 d4 | c4 z2 e2 | %25
w: si je veulx gue-|rir, _ _ _|_ _ _ _|||aul-|cun moy-|en qui|
 e3 d c2 B2- |"^#" BA A4 G2 |[M:2/4] A4 :|[M:2/2] A8- | A8- | A8- | A8- | A8 |] %33
w: me _ _ puis-|* * se gue-|rir,|rir.|_||||
V:2
 E4 E2 E2 | F4 E4 | A4 B4 | A4 z2 E2 | E3 F G2 A2 | B2 c3 B A2- | A2 G2 A4 | F8 | z2 A2 A2 A2 | %9
w: Puis- que vous|ay- *||me, il|fault que je vous|di- * * *||se,|que bien ay-|
 E2 E2 F2 G2 | F2 E4 D2- | D2 C2 D4 | z2 A4 A2 | F2 D2 E4 | C2 A,2 D2 D2 | A,4 z2 A2 | %16
w: mer s'ap- pel- le|ma- la- di-|* * e,|ma- la-|di- * *|e, je suis mal|sain, et|
 A2 A2 G2 F2 | E4 D4 | E3 F G2 E2 | A2 G2 E2 F2 |"^b" G2 A2 B4 | A4 z2 E2 |: G2 A2 G2 F2- | %23
w: si je veulx gue-|rir, et|si je veulx gue-|rir, _ _ _|_ _ _|* aul-|cun moy- en _|
 FE A4 G2 | A2 A2 c3 B | A2 G2 A2 G2 | E2 F2 E4 |[M:2/4] z2 E2 :|[M:2/2] C3 D E2 F2 | E4 F4 | %30
w: _ _ _ _|* qui me _|_ puis- se gue-|rir, _ _|aul-|cun _ _ moy-|en qui|
 F2 F2 E2 F2 | C2 F4 ED | E8 |] %33
w: me puis- se gue-|rir. _ _ _|_|
V:3
 A4 c2 c2 | d4 c3 d | e2 c2 g4 | f2 ed e2 c2 | c3 d e2 f2 | g2 a3 g f2 | e2 d2 e4 | d6 d2 | %8
w: Puis- que vous|ay- * *||* * * me, il|fault que je vous|di- * * *||se, que|
 f2 f2 e4 | z2 c2 c2 d2- | d2 c2 d4 | e4 d2 A2 | c2 d2 f2 e2 | dc BA B4 | A2 a2 f2 a2- | agfe f4 | %16
w: bien ay- mer,|que bien ay-|mer s'ap- pel-|le ma- la-|di- * * *||e, je suis mal|_ _ _ _ _|
 e4 d4 | z2 e2 f2 g2 | a2 A2 B2 c2 | d2 d2 c4 | d2 e2 f2 g2 | e2 A2 c3 d |: e2 c2 e2 f2 | %23
w: * sain,|et si je|veulx,- et si je|veulx gue- rir,|et si je veulx|gue- rir, _ _|_ aul- cun moy-|
 c2 e2 f2 d2 | e2 e2 e3 d | c2 B2 A2 B2 | c2 d2 B4 |[M:2/4] AB cd :|[M:2/2] A4 z2 d2- | d2 c2 d4 | %30
w: en, aul- cun moy-|en qui me _|_ puis- se gue-|rir, _ _|_ _ _ _|(rir,) qui|_ me puis-|
 A4 c2 d2 | A2 d4 cB | c8 |] %33
w: se gue- *|rir. _ _ _|_|
V:4
 A4 A2 A2 |"^#" DE FG A4- | A4 G4 | A8- | A4 z4 | z2 F2 F3 G |"^b" A2 B2 A4 | D4 z2 d2 | %8
w: Puis- que vous|ay- * * * *||me,|_|il fault que|je _ di-|se, que|
 d2 d2 A2 A2 | c3 B A2 G2 | A4 B4 | A4 DE FG | A2 D2 A4 | D2 F2 E4 | A4 z2 D2- | D2 D2 DE FG | %16
w: bien ay- mer s'ap-|pel- le ma- la-|di- *||||e, je|_ suis mal _ _ _|
 AB cA Bc d2- | d2 c2 B4 | A4 z2 E2 | F2 G2 A4 | G2 c2 _B2 G2 | A8 |: z2 A2 c2 d2 | A2 c2 B4 | %24
w: _ _ _ _ _ _ _||sain, et|si je veulx|gue rir _ _|_|aul- cun moy-|en qui me|
 A6 A2 | A2 E2 F2 G2 | A2 D2 E4 |[M:2/4] A4 :|[M:2/2] z2 A2 c2 d2 | A4 z2 D2 | DE FG A2 D2 | %31
w: puis- se|gue- rir, _ _|_ _ _||qui me puis-|se gue-|rir. _ _ _ _ _|
 F3 G A4- | A8 |] %33
w: _ _ _||

